img/service-size-icon__05.svg

<svg width="26" height="24" viewBox="0 0 26 24" fill="none" xmlns="http://www.w3.org/2000/svg">
<path d="M7.97117 17.156C7.98357 17.1848 7.99863 17.2122 8.01637 17.2375C8.03392 17.2635 8.05452 17.2876 8.07703 17.3092C8.09953 17.3309 8.1249 17.3507 8.15141 17.3676C8.17831 17.3845 8.20673 17.3991 8.2361 17.4109C8.26547 17.4226 8.29637 17.4316 8.32765 17.4377C8.3595 17.4439 8.39136 17.4472 8.42321 17.4472C8.45544 17.4472 8.4873 17.4439 8.51915 17.4377C8.55043 17.4316 8.58095 17.4226 8.6107 17.4109C8.64008 17.3991 8.6685 17.3845 8.69501 17.3676C8.7219 17.3507 8.74689 17.3309 8.76939 17.3092C8.7919 17.2876 8.8125 17.2635 8.83062 17.2375C8.84817 17.2122 8.86343 17.1848 8.87563 17.156C8.88784 17.1278 8.89719 17.0982 8.90348 17.068C8.90997 17.0379 8.91283 17.0067 8.91283 16.9762C8.91283 16.9456 8.90997 16.9144 8.90348 16.8838C8.89719 16.8542 8.88784 16.8245 8.87563 16.7959C8.86343 16.7675 8.84817 16.7401 8.83062 16.7148C8.81288 16.6889 8.79247 16.6649 8.76978 16.6433C8.74689 16.6211 8.7219 16.6018 8.69539 16.5844C8.6685 16.5673 8.64008 16.5528 8.6107 16.5409C8.58133 16.5291 8.55043 16.5203 8.51915 16.5141C8.45602 16.5018 8.39079 16.5018 8.32765 16.5141C8.29637 16.5203 8.26547 16.5291 8.2361 16.5409C8.20673 16.5528 8.17793 16.5673 8.15141 16.5844C8.12452 16.6018 8.09953 16.6211 8.07703 16.6433C8.05452 16.6649 8.03392 16.6889 8.01637 16.7148C7.99863 16.7401 7.98357 16.7675 7.97117 16.7959C7.95896 16.8245 7.94962 16.8542 7.94332 16.8838C7.93703 16.9144 7.93359 16.9456 7.93359 16.9762C7.93359 17.0067 7.93703 17.0379 7.94332 17.068C7.94962 17.0981 7.95896 17.1278 7.97117 17.156Z" fill="black"/>
<path d="M25.4596 4.48778H22.47C22.5173 4.08379 22.5438 3.79484 22.5438 3.65596C22.5438 2.171 21.3245 0.962891 19.8259 0.962891C18.3271 0.962891 17.1079 2.171 17.1079 3.65596C17.1079 3.8075 17.1396 4.13773 17.1951 4.60116C15.4739 5.01432 14.195 6.5134 14.195 8.29502V12.3795C14.195 13.1097 13.5774 13.7035 12.8185 13.7035H11.7107V10.1564C12.6037 9.98124 13.2776 9.22023 13.2776 8.31025C13.2776 7.27148 12.399 6.42644 11.3189 6.42644H2.90788C1.82793 6.42644 0.949219 7.27148 0.949219 8.31025C0.949219 9.21638 1.61774 9.975 2.50523 10.1541V19.3742C1.61698 19.558 0.949219 20.3189 0.949219 21.2272C0.949219 22.2726 1.83327 23.1229 2.92008 23.1229H11.3067C12.3935 23.1229 13.2776 22.2726 13.2776 21.2272C13.2776 20.315 12.6043 19.5514 11.7107 19.3716V14.6456H12.8185C14.1174 14.6456 15.1742 13.629 15.1742 12.3795V8.29502C15.1742 6.99463 16.0798 5.8944 17.3162 5.54563C17.8565 9.57486 19.2682 18.3791 19.342 18.8381C19.3788 19.0678 19.5842 19.2374 19.8259 19.2374C20.0675 19.2374 20.273 19.0678 20.3098 18.8381C20.3841 18.3747 21.8227 9.40314 22.3512 5.42968H25.4596C25.7301 5.42968 25.9492 5.2187 25.9492 4.95873C25.9492 4.69858 25.7301 4.48778 25.4596 4.48778ZM10.7314 10.9464L3.48447 12.198V10.1942H10.7314V10.9464ZM3.48447 13.1552L10.7314 11.9036V13.7035H3.48447V13.1552ZM1.92845 8.31025C1.92845 7.79086 2.3679 7.36835 2.90788 7.36835H11.3189C11.8589 7.36835 12.2983 7.79086 12.2983 8.31025C12.2983 8.82982 11.8589 9.25233 11.3189 9.25233H2.90788C2.3679 9.25233 1.92845 8.82982 1.92845 8.31025ZM12.2983 21.2272C12.2983 21.7532 11.8535 22.181 11.3067 22.181H2.92008C2.37325 22.181 1.92845 21.7532 1.92845 21.2272C1.92845 20.7014 2.37325 20.2736 2.92008 20.2736H11.3067C11.8535 20.2736 12.2983 20.7014 12.2983 21.2272ZM10.7314 16.5302H10.3784C10.1079 16.5302 9.88877 16.7411 9.88877 17.0011C9.88877 17.2613 10.1079 17.4721 10.3784 17.4721H10.7314V19.3315H3.48447V17.4721H6.46108C6.73154 17.4721 6.95069 17.2613 6.95069 17.0011C6.95069 16.7411 6.73154 16.5302 6.46108 16.5302H3.48447V14.6456H10.7314V16.5302ZM19.8259 15.6475C19.2973 12.291 18.6176 7.88186 18.2864 5.42968H19.3012V5.88247C19.3012 6.14244 19.5203 6.35342 19.7908 6.35342C20.0612 6.35342 20.2804 6.14244 20.2804 5.88247V3.65816C20.2804 3.39819 20.0612 3.18721 19.7908 3.18721C19.5203 3.18721 19.3012 3.39819 19.3012 3.65816V4.48778H18.1649C18.1152 4.07444 18.0871 3.78475 18.0871 3.65596C18.0871 2.69039 18.8672 1.90479 19.8259 1.90479C20.7845 1.90479 21.5644 2.69039 21.5644 3.65596C21.5644 4.43219 20.552 11.0345 19.8259 15.6475Z" fill="black"/>
</svg>

<svg width="26" height="24" fill="none" xmlns="http://www.w3.org/2000/svg"><path d="M7.971 17.156a.456.456 0 00.18.212.533.533 0 00.272.08.5.5 0 00.453-.292.456.456 0 00-.18-.572.525.525 0 00-.177-.07.502.502 0 00-.503.2.467.467 0 00-.082.262.452.452 0 00.037.18z" fill="#000"/><path d="M25.46 4.488h-2.99a9.25 9.25 0 00.074-.832c0-1.485-1.22-2.693-2.718-2.693-1.499 0-2.718 1.208-2.718 2.693 0 .151.032.482.087.945-1.721.413-3 1.912-3 3.694v4.085c0 .73-.618 1.323-1.377 1.323h-1.107v-3.547c.893-.175 1.567-.936 1.567-1.846 0-1.039-.879-1.884-1.96-1.884h-8.41c-1.08 0-1.959.845-1.959 1.884 0 .906.669 1.665 1.556 1.844v9.22c-.888.184-1.556.945-1.556 1.853 0 1.046.884 1.896 1.971 1.896h8.387c1.086 0 1.97-.85 1.97-1.896 0-.912-.673-1.676-1.566-1.855v-4.726h1.107c1.3 0 2.356-1.017 2.356-2.267V8.296c0-1.3.906-2.4 2.142-2.75.54 4.03 1.952 12.834 2.026 13.293.037.23.242.4.484.4.241 0 .447-.17.484-.4.074-.463 1.513-9.435 2.041-13.408h3.109a.48.48 0 00.49-.471.48.48 0 00-.49-.471zm-14.73 6.458l-7.247 1.252v-2.004h7.247v.752zm-7.247 2.21l7.247-1.252v1.8H3.484v-.549zM1.928 8.31c0-.52.44-.942.98-.942h8.41c.54 0 .98.423.98.942 0 .52-.44.942-.98.942h-8.41c-.54 0-.98-.422-.98-.942zm10.37 12.917c0 .526-.444.954-.991.954H2.92c-.547 0-.992-.428-.992-.954s.445-.953.992-.953h8.387c.546 0 .991.427.991.953zm-1.567-4.697h-.353a.48.48 0 00-.49.471c0 .26.22.471.49.471h.353v1.86H3.484v-1.86h2.977c.27 0 .49-.21.49-.47a.48.48 0 00-.49-.472H3.484v-1.884h7.247v1.884zm9.095-.883c-.529-3.356-1.208-7.765-1.54-10.217h1.015v.452c0 .26.22.471.49.471a.48.48 0 00.49-.47V3.657a.48.48 0 00-.49-.47.48.48 0 00-.49.47v.83h-1.136a9.45 9.45 0 01-.078-.832c0-.966.78-1.751 1.739-1.751.959 0 1.738.785 1.738 1.751 0 .776-1.012 7.378-1.738 11.992z" fill="#000"/></svg>
